svg/misc/utensils.svg

<svg width="320" height="512" viewBox="0 0 320 512" fill="none" xmlns="http://www.w3.org/2000/svg">
<path d="M16 0C7.16344 0 0 7.16344 0 16V203.643C0 210.971 0.666664 217.238 2 222.445C3.33334 227.652 4.91666 231.75 6.75 234.739C8.58334 237.728 11.25 240.38 14.75 242.694C18.25 245.008 21.3333 246.647 24 247.611C26.6667 248.576 30.5417 249.877 35.625 251.516C38.0236 252.29 41.3962 253.031 44.6223 253.74C45.7846 253.996 46.9282 254.247 48 254.494V480C48 497.673 62.3269 512 80 512C97.6731 512 112 497.673 112 480V254.494C113.072 254.247 114.215 253.995 115.377 253.74C118.604 253.031 121.976 252.29 124.375 251.516C129.458 249.877 133.333 248.576 136 247.611C138.667 246.647 141.75 245.008 145.25 242.694C148.75 240.38 151.417 237.728 153.25 234.739C155.083 231.75 156.667 227.652 158 222.445C159.333 217.238 160 210.971 160 203.643V16C160 7.16344 152.837 0 144 0C135.163 0 128 7.16344 128 16V144C128 152.837 120.837 160 112 160C103.163 160 96 152.837 96 144V16C96 7.16344 88.8366 0 80 0C71.1634 0 64 7.16344 64 16V144C64 152.837 56.8366 160 48 160C39.1634 160 32 152.837 32 144V16C32 7.16344 24.8366 0 16 0Z" fill="black"/>
<path d="M320 18.2857V285.429C320 285.887 319.993 286.342 319.978 286.793C319.993 287.193 320 287.596 320 288V480C320 497.673 305.673 512 288 512C270.327 512 256 497.673 256 480V320H186.734C184.324 320 182.285 319.048 180.616 317.143C177.093 313.524 177.239 308.857 181.503 284.857C182.244 280.095 183.681 270.429 185.813 255.857C187.946 241.286 189.939 227.667 191.793 215C193.647 202.333 196.242 186.952 199.58 168.857C202.917 150.762 206.347 134.429 209.87 119.857C213.392 105.286 217.796 90.2381 223.08 74.7143C228.364 59.1905 233.88 46.2381 239.627 35.8571C245.375 25.4762 252.142 16.9047 259.929 10.1428C267.716 3.38092 275.874 0 284.402 0H302.201C307.022 0 311.193 1.80951 314.716 5.42856C318.239 9.04761 320 13.3333 320 18.2857Z" fill="black"/>
</svg>

<svg width="320" height="512" viewBox="0 0 320 512" version="1.1" xmlns="http://www.w3.org/2000/svg"><path fill="currentColor" d="M16,0c-8.837,0 -16,7.163 -16,16l0,187.643c0,7.328 0.667,13.595 2,18.802c1.333,5.207 2.917,9.305 4.75,12.294c1.833,2.989 4.5,5.641 8,7.955c3.5,2.314 6.583,3.953 9.25,4.917c2.667,0.965 6.542,2.266 11.625,3.905c2.399,0.774 5.771,1.515 8.997,2.224c1.163,0.256 2.306,0.507 3.378,0.754l0,225.506c0,17.673 14.327,32 32,32c17.673,0 32,-14.327 32,-32l0,-225.506c1.072,-0.247 2.215,-0.499 3.377,-0.754c3.227,-0.709 6.599,-1.45 8.998,-2.224c5.083,-1.639 8.958,-2.94 11.625,-3.905c2.667,-0.964 5.75,-2.603 9.25,-4.917c3.5,-2.314 6.167,-4.966 8,-7.955c1.833,-2.989 3.417,-7.087 4.75,-12.294c1.333,-5.207 2,-11.474 2,-18.802l0,-187.643c0,-8.837 -7.163,-16 -16,-16c-8.837,0 -16,7.163 -16,16l0,128c0,8.837 -7.163,16 -16,16c-8.837,0 -16,-7.163 -16,-16l0,-128c0,-8.837 -7.163,-16 -16,-16c-8.837,0 -16,7.163 -16,16l0,128c0,8.837 -7.163,16 -16,16c-8.837,0 -16,-7.163 -16,-16l0,-128c0,-8.837 -7.163,-16 -16,-16Zm304,18.286l0,267.143c0,0.458 -0.007,0.913 -0.022,1.364c0.015,0.4 0.022,0.803 0.022,1.207l0,192c0,17.673 -14.327,32 -32,32c-17.673,0 -32,-14.327 -32,-32l0,-160l-69.266,0c-2.41,0 -4.449,-0.952 -6.118,-2.857c-3.523,-3.619 -3.377,-8.286 0.887,-32.286c0.741,-4.762 2.178,-14.428 4.31,-29c2.133,-14.571 4.126,-28.19 5.98,-40.857c1.854,-12.667 4.449,-28.048 7.787,-46.143c3.337,-18.095 6.767,-34.428 10.29,-49c3.522,-14.571 7.926,-29.619 13.21,-45.143c5.284,-15.523 10.8,-28.476 16.547,-38.857c5.748,-10.381 12.515,-18.952 20.302,-25.714c7.787,-6.762 15.945,-10.143 24.473,-10.143l17.799,0c4.821,0 8.992,1.81 12.515,5.429c3.523,3.619 5.284,7.904 5.284,12.857Z"></path></svg>
